src/icons/facebook.svg

<svg width="24" height="24" viewBox="0 0 24 24" fill="none" xmlns="http://www.w3.org/2000/svg">
<path d="M24 12.0728C23.9997 9.76538 23.3424 7.5064 22.1058 5.56325C20.8692 3.6201 19.1051 2.07415 17.0225 1.10843C14.9398 0.142701 12.6257 -0.202354 10.3542 0.11411C8.08263 0.430574 5.94878 1.3953 4.20524 2.89409C2.4617 4.39287 1.18149 6.36294 0.516158 8.57106C-0.149172 10.7792 -0.171753 13.1329 0.451088 15.3535C1.07393 17.5742 2.31611 19.5687 4.03057 21.1011C5.74503 22.6335 7.85996 23.6395 10.125 24V15.5632H7.078V12.0728H10.125V9.41242C10.125 6.38684 11.917 4.71457 14.657 4.71457C15.5571 4.72756 16.4552 4.80625 17.344 4.95002V7.92227H15.83C15.3742 7.86139 14.9131 7.98513 14.548 8.26627C14.1829 8.5474 13.9437 8.96293 13.883 9.42147C13.8658 9.54989 13.8632 9.67984 13.875 9.80885V12.0728H17.2L16.668 15.5632H13.868V24C16.692 23.5522 19.2644 22.1047 21.1219 19.918C22.9795 17.7314 24.0001 14.9493 24 12.0728Z" fill="white"/>
</svg>

<svg width="24" height="24" fill="none" xmlns="http://www.w3.org/2000/svg"><path d="M24 12.073c0-2.308-.658-4.567-1.894-6.51-1.237-1.943-3-3.489-5.084-4.455a11.934 11.934 0 0 0-6.668-.994 11.965 11.965 0 0 0-6.149 2.78A12.08 12.08 0 0 0 .516 8.571a12.146 12.146 0 0 0-.065 6.783 12.084 12.084 0 0 0 3.58 5.747A11.968 11.968 0 0 0 10.125 24v-8.437H7.078v-3.49h3.047v-2.66c0-3.026 1.792-4.698 4.532-4.698a18.5 18.5 0 0 1 2.687.235v2.972H15.83a1.726 1.726 0 0 0-1.282.344 1.747 1.747 0 0 0-.673 1.543v2.264H17.2l-.532 3.49h-2.8V24a11.981 11.981 0 0 0 7.254-4.082A12.118 12.118 0 0 0 24 12.073z" fill="#fff"/></svg>
